X: 8
T: The Humours Of Trim
R: jig
M: 6/8
L: 1/8
K: Dmaj
FEF D2d cAG | F2D AGF GFE | FEF D2d cAG | ~F2A ~G2B AFE |FEF D2d cAG | F2D AGF GFE | FEF D2d cAG | ~F2A ~G2B AFE ||D2d cAd cAG | F2d A2F GFE | D2d cAc ded | ~F2A ~G2B AFE |D2d cAd cAG | F2d A2F GFE | D2d cAd fed | ~F2A ~G2B AFE ||


Tune 88	Setting 12622

